!! 00008] TT[TB
!! Eigene Aufnahme
!!!OTL: Mu ge
!!!ARE: Mongolei, Chaowudameng
!! Ethnic Group: Menggu
!! IV, 301
!!!SCT: C0194
!!!YEM: Copyright 1995, estate of Helmut Schaffrath.
**kern
*ICvox
*Ivox
*M2/4
*k[f#c#]
*D:
{4f#
[4a
=1
4.a]
8a
=2
16a
16b
8cc#
[4b
=3
4.b]
8cc#}
=4
{4f#
[4a
=5
4.a]
8b
=6
16a
16b
[4.a
=7
2a]}
=8
{4a
[4d
=9
4.d]
8e
=10
8f#
[4.e
=11
8e]
8f#
4e}
=12
{4B
[4d
=13
8d]
8d
16e
16d
16e
16f#
=14
2d}
==
!!!AGN: Muge, Chang diao
!! starke VARIANTE; Saenger: Chao Lun Batou
!!!ONB: ESAC (Essen Associative Code) Database: CHINA_023
!!!AMT: simple duple
!!!AIN: vox
!!!EED: Helmut Schaffrath
!!!EEV: 1.0
*-
!!!ONB: Tied note syntax fixed by Craig Sapp, 2004/05/03/
